X:1
T:Saginaw, 87.87.76.76
T:Saginaw, 87.87.76.76
T:From J. H. Olinger, 1893
T:Public Domain Courtesy of the Cyber Hymnal™
C:From J. H. Olinger, 1893
Z:Public Domain
Z:Courtesy of the Cyber Hymnal™
%%score 1 ( 2 3 )
L:1/8
Q:1/4=90
M:6/8
K:G
V:1 treble 
V:2 bass 
V:3 bass 
V:1
 [B,D]>[B,D][B,D] [DB][DA][DG] | [EG]3 [CE]3 | [CD]>[CD][CD] [B,G][CA][DB] | [DA]3- [DA]2 z | %4
 [B,D]>[B,D][B,D] [DB][DA][DG] | [EG]3 [CE]3 | [CD]>[CD][CD] [CA][CG][CF] | [B,G]3- [B,G]2 z | %8
 .[Dc]2 [D^G] [DA][DB][DA] | [DA]3 .[DF]2 [FA] | [EA]2 [EA] [EB]2 [EB] | [FA]3- [FA]2 z | %12
 [B,D]2 [B,D] [DB][DA][DG] | [EG]3 [CE]3 | [CD]2 [CG] [CF]>[CG][CA] | [B,G]3- [B,G]2 z |] %16
V:2
 [G,,G,]>[G,,G,][G,,G,] [G,,G,][A,,F,][B,,G,] | [C,G,]3 [C,G,]3 | %2
 [D,F,]>[D,F,][D,F,] [D,G,][D,F,][D,G,] | [D,F,]3- [D,F,]2 z | G,>G,G, [G,,G,][A,,F,][B,,G,] | %5
 [C,G,]3 [C,G,]3 | [D,F,]>[D,F,][D,F,] [D,F,][D,G,][D,A,] | [G,,G,]3- [G,,G,]2 z | %8
 .[D,F,]2 [D,F,] [D,F,][D,G,][D,F,] | [D,F,]3 .[D,A,]2 [D,C] | [A,,^C]2 [A,,C] [A,,C]2 [A,,C] | %11
 [D,D]3- [D,D]2 z | G,2 G, [G,,G,][A,,F,][B,,G,] | [C,G,]3 [C,G,]3 | %14
 [D,F,]2 [D,G,] [D,A,]>[D,G,][D,F,] | [G,,G,]3- [G,,G,]2 z |] %16
V:3
 x6 | x6 | x6 | x6 | G,>G,G, x3 | x6 | x6 | x6 | x6 | x6 | x6 | x6 | G,2 G, x3 | x6 | x6 | x6 |] %16

